offer/images/email.svg

<svg height="52" viewBox="0 0 50 52" width="50" xmlns="http://www.w3.org/2000/svg"><g fill="none" fill-rule="evenodd"><path d="m49.9064868 21.6155885c-.1404672-.7962659-.5879104-1.5054216-1.2227747-2.0035332l-22.1527778-17.37174102c-.938289-.73608058-2.2557607-.73489279-3.1928661.00237578l-22.07780941 17.37055314c-.63249677.4977156-1.07796707 1.2056835-1.21882889 2.0003654-.02564707.1465035-.0414299.2934029-.0414299.4351548v28.4208699c0 .8449683.68300192 1.5303667 1.52501576 1.5303667h46.89749054c.8424084 0 1.5250158-.6853984 1.5250158-1.5303667v-28.4208699c0-.1409601-.0153883-.2870675-.0410353-.4331749z" fill="#f2f2f2"/><path d="m49.9475221 50.4696333v-28.4208699c0-.1409601-.0153883-.2870675-.0410353-.432779-.0528726-.3013219-.1499369-.5895772-.2844856-.8592227l-.2292455.1108675-22.8618214 17.9284539c-.938289.7356847-2.2557607.7348928-3.1928661-.0027716l-22.78330173-17.9256823-.24621213-.0760234c-.12507899.2589546-.21622485.5349354-.26712444.8220028-.02564707.1465035-.0414299.2934029-.0414299.4351548v28.4208699c0 .8453643.68300192 1.5303667 1.52501576 1.5303667h46.89749054c.8424084 0 1.5250158-.6853984 1.5250158-1.5303667z" fill="#cdd6df"/><path d="m49.9064868 21.6159844c-.0528726-.3013219-.1499369-.5895772-.2844856-.8592227l-.2292455.1108675-5.011048 3.9302509v23.8178911c0 .8453643-.6830018 1.5303668-1.5254103 1.5303668h-42.8562974v.3234953c0 .8453643.68300192 1.5303667 1.52501576 1.5303667h46.89749054c.8424084 0 1.5250158-.6850024 1.5250158-1.5303667v-28.4208699c0-.1409601-.0153883-.2870675-.0410353-.432779z" fill="#aebcc4"/><path d="m49.4491793 51.5988974c-2.3374369-1.99601-12.3824179-10.5656676-18.856534-15.9878777l-4.061711 3.1850634c-.938289.7356847-2.2557607.7344968-3.1928661-.0027716l-4.0321181-3.1723929c-6.2878788 5.2297758-15.93276515 13.3947673-18.8880997 15.8991837.27817233.2949866.67077021.4798977 1.1075599.4798977h46.897096c.3961491 0 .7556029-.1528386 1.026673-.4011026z" fill="#aebcc4"/><path d="m48.6387311 51.9829739c.0264362-.0039595.053267-.0071271.0797032-.0122745.0291982-.0059394.0576073-.0134626.0860164-.0209857.0177558-.0047515.0355114-.008711.0528725-.0138584.0335385-.0098989.0658934-.0217775.0982481-.0340522.0114426-.0039595.0228852-.0079191.0339331-.0122746.0359059-.0146503.0714173-.0308845.1061395-.0483065.0063132-.0031676.0126263-.0059393.0189394-.009107.0374843-.0194018.0741793-.0403875.1100853-.062561.0027619-.0019797.0055239-.0035635.0082859-.0051473.0374843-.0237574.0741793-.0494944.1096908-.0764194.0003945-.0003959.0011836-.0007919.0015781-.0011879.0363006-.0281128.0714174-.0570175.1049559-.088298-.8502999-.7257858-2.7205651-2.3218811-5.0674716-4.3194749v1.3367447c0 .8449683-.6830018 1.5303668-1.5254103 1.5303668h-40.81636689c-.65498728.5543372-1.20501889 1.0203764-1.62208011 1.3735684.06944445.0736476.14599112.1405641.22885101.1991654 0 .000396 0 .000396.00039455.000396.03985162.0281128.08088697.0546418.12350061.078795.00197293.0011879.00394575.0027717.00591858.0039596.04024626.0225694.08167616.0431591.12389515.0625609.00473495.0019798.0094697.0047515.01420465.0067313.03945697.017422.08009778.0324683.12113313.0463267.00789141.0027717.01578283.0063353.02406889.009107.03827333.0122747.0777304.0221735.11758202.0312805.01104798.0027716.02170141.0063353.03314394.008711.03866798.008315.07812495.0138584.11797667.0190058.01262626.0015838.02485798.0043555.03748424.0055433.05208323.0055435.1053503.0087111.15901192.0087111h46.89749054c.0508997 0 .1010101-.0027717.150726-.0079191.022096-.0019798.0434029-.0059394.0654988-.009107z" fill="#96a4aa"/><path d="m25.636048 31.5683175c-.5397727-1.1280762-1.4224274-.7028204-1.9625947-1.8305007-.5397727-1.1276803.3424873-1.5529361-.1972854-2.6806165-.5401673-1.1280763-1.4224274-.7028204-1.9629892-1.8308966-.5401674-1.1280764.3424874-1.5533322-.1976799-2.6814085-.3302558-.6897539-.9083018-2.0997502-1.3375948-2.3377193l-3.8423295 1.3391204 5.0520833 10.7573099c.4951862 1.033839 1.7313763 1.4693897 2.7616004.9724659l1.3020833-.6279848c.3977273-.1916424.5788353-.6707481.3894413-1.0706628-.0015783-.0031676-.0031565-.0063353-.0047348-.009107z" fill="#3c5666"/><path d="m16.0570549 24.4106359-3.0622632 1.4028692c-.5812027.2660819-1.2673612.009107-1.5325127-.5741349l-1.2803819-2.8152413c-.26515154-.583242-.0090751-1.271808.571733-1.5378899l3.0626578-1.4024731c.3594539-.1647174.784012-.0055435.9481534.3551717l1.6465435 3.6202181c.1641415.3607152.0055241.7867629-.3539299.9514802z" fill="#3c5666"/><path d="m19.5825442 14.9722527-6.2160669 2.8469176c-.8179451.3745736-1.1781882 1.3434759-.8049243 2.164687l2.2672034 4.9850754c.3736583.8208151 1.3391729 1.1823222 2.1571179.8077486l6.216067-2.8469176 18.7464488-1.6915205-8.8095801-19.36973075z" fill="#fed066"/><path d="m21.1363636 17.7831384-7.8724747 3.7449439 1.5648675 3.4408504c.3732638.8208151 1.3391729 1.1823222 2.1571179.8077486l6.2156724-2.8469176 18.7468434-1.6915205-2.6337594-5.7908443z" fill="#f5b556"/><path d="m23.2015467 22.9297637-6.2156724 2.8469176c-.8183396.3745736-1.7838541.0130665-2.1571179-.8077486l-2.2675979-4.9850754c-.373264-.8208152-.0130209-1.7901134.8053188-2.164687l6.2156723-2.8469176z" fill="#ee5646"/><path d="m13.2638889 21.5280823 1.5648675 3.4408504c.2801451.6153144.893308.9728619 1.5273831.9550439.2114899-.0059393.4249526-.053454.6297348-.1472953l6.2156724-2.8469176-2.2916667-5.0389255z" fill="#d83e3a"/><path d="m43.0555556 22.1338938-.9465752.4335709c-.5721275.2621223-1.2480271.0091069-1.5092329-.565424l-9.0277778-19.84923249c-.2612059-.57413494-.0090752-1.25240621.563447-1.51452848l.9465751-.43357093c.5721275-.26212227 1.2480272-.00871097 1.5092329.56542397l9.0277778 19.84923253c.2612058.5741349.0090752 1.2524062-.5634469 1.5145285z" fill="#ee5646"/><path d="m43.6190025 20.6193653-1.8493529-4.0656677-3.0188605 1.3826755 1.8489584 4.0656676c.2612058.5745309.9371054.8275463 1.5092329.565424l.9465752-.4335709c.5725221-.2621223.8246527-.9403936.5634469-1.5145285z" fill="#d83e3a"/></g></svg>

<?xml version="1.0" encoding="UTF-8"?>
<svg width="50px" height="52px" viewBox="0 0 50 52" version="1.1" xmlns="http://www.w3.org/2000/svg" xmlns:xlink="http://www.w3.org/1999/xlink">
    <!-- Generator: Sketch 52.2 (67145) - http://www.bohemiancoding.com/sketch -->
    <title>email-marketing</title>
    <desc>Created with Sketch.</desc>
    <g id="Page-1" stroke="none" stroke-width="1" fill="none" fill-rule="evenodd">
        <g id="offer" transform="translate(-498.000000, -8023.000000)">
            <g id="email-marketing" transform="translate(498.000000, 8023.000000)">
                <path d="M49.9064868,21.6155885 C49.7660196,20.8193226 49.3185764,20.1101669 48.6837121,19.6120553 L26.5309343,2.24031428 C25.5926453,1.5042337 24.2751736,1.50542149 23.3380682,2.24269006 L1.26025879,19.6132432 C0.62776202,20.1109588 0.182291717,20.8189267 0.041429899,21.6136086 C0.0157828283,21.7601121 0,21.9070115 0,22.0487634 L0,50.4696333 C0,51.3146016 0.683001919,52 1.52501576,52 L48.4225063,52 C49.2649147,52 49.9475221,51.3146016 49.9475221,50.4696333 L49.9475221,22.0487634 C49.9475221,21.9078033 49.9321338,21.7616959 49.9064868,21.6155885 Z" id="Path" fill="#F2F2F2"></path>
                <path d="M49.9475221,50.4696333 L49.9475221,22.0487634 C49.9475221,21.9078033 49.9321338,21.7616959 49.9064868,21.6159844 C49.8536142,21.3146625 49.7565499,21.0264072 49.6220012,20.7567617 L49.3927557,20.8676292 L26.5309343,38.7960831 C25.5926453,39.5317678 24.2751736,39.5309759 23.3380682,38.7933115 L0.554766465,20.8676292 L0.308554343,20.7916058 C0.183475354,21.0505604 0.0923294949,21.3265412 0.041429899,21.6136086 C0.0157828283,21.7601121 0,21.9070115 0,22.0487634 L0,50.4696333 C0,51.3149976 0.683001919,52 1.52501576,52 L48.4225063,52 C49.2649147,52 49.9475221,51.3146016 49.9475221,50.4696333 Z" id="Path" fill="#CDD6DF"></path>
                <path d="M49.9064868,21.6159844 C49.8536142,21.3146625 49.7565499,21.0264072 49.6220012,20.7567617 L49.3927557,20.8676292 L44.3817077,24.7978801 L44.3817077,48.6157712 C44.3817077,49.4611355 43.6987059,50.146138 42.8562974,50.146138 L0,50.146138 L0,50.4696333 C0,51.3149976 0.683001919,52 1.52501576,52 L48.4225063,52 C49.2649147,52 49.9475221,51.3149976 49.9475221,50.4696333 L49.9475221,22.0487634 C49.9475221,21.9078033 49.9321338,21.7616959 49.9064868,21.6159844 Z" id="Path" fill="#AEBCC4"></path>
                <path d="M49.4491793,51.5988974 C47.1117424,49.6028874 37.0667614,41.0332298 30.5926453,35.6110197 L26.5309343,38.7960831 C25.5926453,39.5317678 24.2751736,39.5305799 23.3380682,38.7933115 L19.3059501,35.6209186 C13.0180713,40.8506944 3.37318495,49.0156859 0.417850404,51.5201023 C0.696022727,51.8150889 1.08862061,52 1.5254103,52 L48.4225063,52 C48.8186554,52 49.1781092,51.8471614 49.4491793,51.5988974 Z" id="Path" fill="#AEBCC4"></path>
                <path d="M48.6387311,51.9829739 C48.6651673,51.9790144 48.6919981,51.9758468 48.7184343,51.9706994 C48.7476325,51.96476 48.7760416,51.9572368 48.8044507,51.9497137 C48.8222065,51.9449622 48.8399621,51.9410027 48.8573232,51.9358553 C48.8908617,51.9259564 48.9232166,51.9140778 48.9555713,51.9018031 C48.9670139,51.8978436 48.9784565,51.893884 48.9895044,51.8895285 C49.0254103,51.8748782 49.0609217,51.858644 49.0956439,51.841222 C49.1019571,51.8380544 49.1082702,51.8352827 49.1145833,51.832115 C49.1520676,51.8127132 49.1887626,51.7917275 49.2246686,51.769554 C49.2274305,51.7675743 49.2301925,51.7659905 49.2329545,51.7644067 C49.2704388,51.7406493 49.3071338,51.7149123 49.3426453,51.6879873 C49.3430398,51.6875914 49.3438289,51.6871954 49.3442234,51.6867994 C49.380524,51.6586866 49.4156408,51.6297819 49.4491793,51.5985014 C48.5988794,50.8727156 46.7286142,49.2766203 44.3817077,47.2790265 L44.3817077,48.6157712 C44.3817077,49.4607395 43.6987059,50.146138 42.8562974,50.146138 L2.03993051,50.146138 C1.38494323,50.7004752 0.834911616,51.1665144 0.417850404,51.5197064 C0.487294848,51.593354 0.563841515,51.6602705 0.646701414,51.7188718 C0.646701414,51.7192678 0.646701414,51.7192678 0.64709596,51.7192678 C0.686947576,51.7473806 0.727982929,51.7739096 0.770596566,51.7980628 C0.772569495,51.7992507 0.774542323,51.8008345 0.776515152,51.8020224 C0.816761414,51.8245918 0.858191313,51.8451815 0.900410303,51.8645833 C0.905145253,51.8665631 0.90988,51.8693348 0.914614949,51.8713146 C0.954071919,51.8887366 0.994712727,51.9037829 1.03574808,51.9176413 C1.04363949,51.920413 1.05153091,51.9239766 1.05981697,51.9267483 C1.0980903,51.939023 1.13754737,51.9489218 1.17739899,51.9580288 C1.18844697,51.9608004 1.1991004,51.9643641 1.21054293,51.9667398 C1.24921091,51.9750548 1.28866788,51.9805982 1.3285196,51.9857456 C1.34114586,51.9873294 1.35337758,51.9901011 1.36600384,51.9912889 C1.41808707,51.9968324 1.47135414,52 1.52501576,52 L48.4225063,52 C48.473406,52 48.5235164,51.9972283 48.5732323,51.9920809 C48.5953283,51.9901011 48.6166352,51.9861415 48.6387311,51.9829739 Z" id="Path" fill="#96A4AA"></path>
                <path d="M25.636048,31.5683175 C25.0962753,30.4402413 24.2136206,30.8654971 23.6734533,29.7378168 C23.1336806,28.6101365 24.0159406,28.1848807 23.4761679,27.0572003 C22.9360006,25.929124 22.0537405,26.3543799 21.5131787,25.2263037 C20.9730113,24.0982273 21.8556661,23.6729715 21.3154988,22.5448952 C20.985243,21.8551413 20.407197,20.445145 19.977904,20.2071759 L16.1355745,21.5462963 L21.1876578,32.3036062 C21.682844,33.3374452 22.9190341,33.7729959 23.9492582,33.2760721 L25.2513415,32.6480873 C25.6490688,32.4564449 25.8301768,31.9773392 25.6407828,31.5774245 C25.6392045,31.5742569 25.6376263,31.5710892 25.636048,31.5683175 Z" id="Path" fill="#3C5666"></path>
                <path d="M16.0570549,24.4106359 L12.9947917,25.8135051 C12.413589,26.079587 11.7274305,25.8226121 11.462279,25.2393702 L10.1818971,22.4241289 C9.91674556,21.8408869 10.172822,21.1523209 10.7536301,20.886239 L13.8162879,19.4837659 C14.1757418,19.3190485 14.6002999,19.4782224 14.7644413,19.8389376 L16.4109848,23.4591557 C16.5751263,23.8198709 16.4165089,24.2459186 16.0570549,24.4106359 Z" id="Path" fill="#3C5666"></path>
                <path d="M19.5825442,14.9722527 L13.3664773,17.8191703 C12.5485322,18.1937439 12.1882891,19.1626462 12.561553,19.9838573 L14.8287564,24.9689327 C15.2024147,25.7897478 16.1679293,26.1512549 16.9858743,25.7766813 L23.2019413,22.9297637 L41.9483901,21.2382432 L33.13881,1.86851245 L19.5825442,14.9722527 Z" id="Path" fill="#FED066"></path>
                <path d="M21.1363636,17.7831384 L13.2638889,21.5280823 L14.8287564,24.9689327 C15.2020202,25.7897478 16.1679293,26.1512549 16.9858743,25.7766813 L23.2015467,22.9297637 L41.9483901,21.2382432 L39.3146307,15.4473989 L21.1363636,17.7831384 Z" id="Path" fill="#F5B556"></path>
                <path d="M23.2015467,22.9297637 L16.9858743,25.7766813 C16.1675347,26.1512549 15.2020202,25.7897478 14.8287564,24.9689327 L12.5611585,19.9838573 C12.1878945,19.1630421 12.5481376,18.1937439 13.3664773,17.8191703 L19.5821496,14.9722527 L23.2015467,22.9297637 Z" id="Path" fill="#EE5646"></path>
                <path d="M13.2638889,21.5280823 L14.8287564,24.9689327 C15.1089015,25.5842471 15.7220644,25.9417946 16.3561395,25.9239766 C16.5676294,25.9180373 16.7810921,25.8705226 16.9858743,25.7766813 L23.2015467,22.9297637 L20.90988,17.8908382 L13.2638889,21.5280823 Z" id="Path" fill="#D83E3A"></path>
                <path d="M43.0555556,22.1338938 L42.1089804,22.5674647 C41.5368529,22.829587 40.8609533,22.5765716 40.5997475,22.0020407 L31.5719697,2.15280821 C31.3107638,1.57867327 31.5628945,0.900401996 32.1354167,0.638279727 L33.0819918,0.204708795 C33.6541193,-0.0574134737 34.330019,0.195997832 34.5912247,0.770132772 L43.6190025,20.6193653 C43.8802083,21.1935002 43.6280777,21.8717715 43.0555556,22.1338938 Z" id="Path" fill="#EE5646"></path>
                <path d="M43.6190025,20.6193653 L41.7696496,16.5536976 L38.7507891,17.9363731 L40.5997475,22.0020407 C40.8609533,22.5765716 41.5368529,22.829587 42.1089804,22.5674647 L43.0555556,22.1338938 C43.6280777,21.8717715 43.8802083,21.1935002 43.6190025,20.6193653 Z" id="Path" fill="#D83E3A"></path>
            </g>
        </g>
    </g>
</svg>
